X:1
T:Oklahoma City, 87.87 D
T:Henry John Gauntlett (1805-1876)
T:Oklahoma City, 87.87 D
T:Public Domain
C:Henry John Gauntlett (1805-1876)
Z:Public Domain
%%score ( 1 2 ) ( 3 4 )
L:1/8
M:4/4
K:F
V:1 treble 
V:2 treble 
V:3 bass 
V:4 bass 
V:1
 [CA]2 | [CF]2 [CE]2 [CF]2 [Fd]2 | (EF)(G[Ec]) [FA]2 [FA]2 | [EG]2 [FA]2 [GB]2 [FA]2 | %4
 [EG]4 [FA]2 [CA]2 | [CF]2 [CE]2 [CF]2 [Fd]2 | (EF)(G[Ec]) [FA]2 [FA]2 | [Fc]2 F2 [EB]2 [FA]2 | %8
 [EG]4 F2 [Fc]2 | [Fd]2 [D=B]2 [Gc]2 A2 | [Af]3 [Af] [Ae]2 [EA]2 | [FA]2 [Fd]2 [E^c]2 [Gd]2 | %12
 [Be]4 [EA]4 | [Ff]4 [Ff]2 [Fd]2 | [Fc]3 [FA] [FA]2 [EG]2 | [FA]4 [Fc]4 | %16
 [Fd]2 [D=B]2 [Gc]2 [FA]2 | [EG]4 F2 |] %18
V:2
 x2 | x8 | c3 x5 | x8 | x8 | x8 | c3 x5 | x2 F2 x4 | x4 F2 x2 | x6 A2 | x8 | x8 | x8 | x8 | x8 | %15
 x8 | x8 | x4 F2 |] %18
V:3
 [F,A,]2 | [F,A,]2 [G,B,]2 [F,A,]2 B,A, | (C,D,)(E,[G,C]) [F,C]2 [F,A,]2 | %3
 B,2 [A,C]2 [E,C]2 [F,C]2 | [C,C]4 [F,C]2 [F,A,]2 | [F,A,]2 [G,B,]2 [F,A,]2 (B,A,) | %6
 (C,D,)(E,[G,C]) [F,C]2 [D,F,]2 | [A,,F,]2 [B,,D]2 [G,,B,]2 [F,,C]2 | (C2 B,2) [F,A,]2 [F,A,]2 | %9
 (D,E,)(F,G,) [E,G,]2 [F,C]2 | (D,E,)(F,[G,D]) [A,^C]2 [A,C]2 | [F,D]2 [D,A,]2 A,2 [B,D]2 | %12
 [G,D]4 [A,^C]4 | [D,A,]4 ([B,,D,][C,E,])([D,F,][E,G,]) | ([F,A,][G,B,])([A,C][B,D]) C2 [C,C]2 | %15
 [F,C]4 [F,A,]4 | (D,E,)(F,G,) [E,G,]2 (A,B,) | (C3 B,) [F,,A,]2 |] %18
V:4
 x2 | x6 B,,2 | G,3 x5 | B,2 x6 | x8 | x6 B,,2 | G,3 x5 | x8 | C,4 x4 | A,2 G,2 x4 | D3 x5 | %11
 x4 A,2 x2 | x8 | x8 | x4 C2 x2 | x8 | A,2 G,2 x F,2 x | C,4 x2 |] %18

